X: 23062
T: Late Night At Kincraigie
R: reel
M: 4/4
K: Dmajor
a2 a2 fed2|a2 a2 fed2|a2 ba fed2|e3 f e4|
A2A2A (A2A)|[c3A3] [cA] [c2A2] [c2A2]|A2 cB AF E2|([F4A,4][F4A,4])|
a2 a2 fed2|a2 a2 fed2|a2 ba fed2|e3 f e4|
A2A2A (A2A)|[c3A3] [cA] [c2A2] [c2A2]|A2 cB AF E2|([D4A,4][D4A,4])|
A,B,DE FEDB,|A,B,DE FEDB,|A,B,DE FED2|E3 F E3|
A2A2A (A2A)|[c3A3] [cA] [c2A2] [c2A2]|A2 cB AF E2|([F4A,4][F4A,4])|
A,B,DE FEDB,|A,B,DE FEDB,|A,B,DE FED2|E3 F E3|
A2A2A (A2A)|[c3A3] [cA] [c2A2] [c2A2]|A2 cB AF E2|([D4A,4][D4A,4])|

